icons/glyphs/glyph-film-square.svg

<?xml version="1.0" encoding="UTF-8" standalone="no"?><svg height="16mm" viewBox="0 0 16 16" width="16mm" xmlns="http://www.w3.org/2000/svg"><sodipodi:namedview/><metadata><rdf:RDF><cc:Work><dc:format>image/svg+xml</dc:format><dc:type/><dc:title/></cc:Work></rdf:RDF></metadata><path d="m .0000002 0v16h15.9999998v-16zm1.7031816 1.7969169h2.7938522v2.7939027h-2.7938522zm9.6916142 0h2.793852v2.7939027h-2.793852zm-9.7439773 4.8057883h2.7931629v2.7939024h-2.7931629zm9.6916143 0h2.793162v2.7939024h-2.793162zm-9.712973 4.8064778h2.7938518v2.793213h-2.7938518zm9.691613 0h2.793851v2.793213h-2.793851z" fill="#d0d0d0" stroke-width=".723936"/></svg>

<?xml version="1.0" encoding="UTF-8" standalone="no"?>
<!-- Created with Inkscape (http://www.inkscape.org/) -->

<svg
   xmlns:dc="http://purl.org/dc/elements/1.1/"
   xmlns:cc="http://creativecommons.org/ns#"
   xmlns:rdf="http://www.w3.org/1999/02/22-rdf-syntax-ns#"
   xmlns:svg="http://www.w3.org/2000/svg"
   xmlns="http://www.w3.org/2000/svg"
   xmlns:sodipodi="http://sodipodi.sourceforge.net/DTD/sodipodi-0.dtd"
   xmlns:inkscape="http://www.inkscape.org/namespaces/inkscape"
   width="16mm"
   height="16mm"
   viewBox="0 0 16 16"
   version="1.1"
   id="svg8"
   inkscape:version="0.92+devel (bc9c9b4297, 2017-07-16, custom)"
   sodipodi:docname="glyph-film-square.svg">
  <defs
     id="defs2" />
  <sodipodi:namedview
     id="base"
     pagecolor="#002466"
     bordercolor="#ffffff"
     borderopacity="0.38039216"
     inkscape:pageopacity="1"
     inkscape:pageshadow="2"
     inkscape:zoom="7.1685545"
     inkscape:cx="30.23622"
     inkscape:cy="30.23622"
     inkscape:document-units="mm"
     inkscape:current-layer="svg8"
     inkscape:document-rotation="0"
     showgrid="false"
     inkscape:showpageshadow="false"
     borderlayer="true"
     inkscape:window-width="1920"
     inkscape:window-height="1051"
     inkscape:window-x="0"
     inkscape:window-y="0"
     inkscape:window-maximized="1" />
  <metadata
     id="metadata5">
    <rdf:RDF>
      <cc:Work
         rdf:about="">
        <dc:format>image/svg+xml</dc:format>
        <dc:type
           rdf:resource="http://purl.org/dc/dcmitype/StillImage" />
        <dc:title></dc:title>
      </cc:Work>
    </rdf:RDF>
  </metadata>
  <path
     inkscape:label="#"
     id="rect816"
     d="M 2e-7,0 V 16 H 16 V 0 Z M 1.7031818,1.7969169 H 4.497034 V 4.5908196 H 1.7031818 Z m 9.6916142,0 h 2.793852 V 4.5908196 H 11.394796 Z M 1.6508187,6.6027052 H 4.4439816 V 9.3966076 H 1.6508187 Z m 9.6916143,0 h 2.793162 V 9.3966076 H 11.342433 Z M 1.62946,11.409183 h 2.7938518 v 2.793213 H 1.62946 Z m 9.691613,0 h 2.793851 v 2.793213 h -2.793851 z"
     style="fill:#d0d0d0;stroke-width:0.7239356"
     inkscape:connector-curvature="0"
     sodipodi:nodetypes="ccccccccccccccccccccccccccccccccccc" />
</svg>
